ui/StatusQ/src/assets/img/icons/emojiCategories/food.svg

<svg fill="none" height="20" viewBox="0 0 20 20" width="20" xmlns="http://www.w3.org/2000/svg"><path clip-rule="evenodd" d="m10.7177 4.3283c.0885.07865.229.02764.247-.08937.1021-.66713.2272-1.39664.3674-2.03295.1175-.53369.2572-1.05795.4226-1.426371.0717-.1596.202-.41879.4312-.592581.134-.1015898.346-.2063938.6142-.18502233.2648.02109813.4563.15511533.5727.27159133.4759.47585.8422 1.287803 1.0703 1.864883.0652.16479.2531.24484.4181.18013.0719-.02824.1458-.05603.2209-.08285.3536-.12619.7756-.24564 1.1853-.27341.3879-.0263.9349.0194 1.3409.4254s.4517.95296.4254 1.34093c-.0278.40966-.1472.83169-.2734 1.18524-.0268.07515-.0546.149-.0828.22098-.0648.16495.0153.35289.1801.41802.5771.22811 1.389.59446 1.8649 1.07031.1136.11366.2444.29892.27.55554.0262.26227-.0698.47432-.1695.61252-.1693.23462-.4259.36676-.5796.43773-.3563.16455-.863.30246-1.3782.41822-.5628.12646-1.2047.24108-1.8144.33819-.0318.00507-.0434.04484-.0193.06624.9886.87879.8708 2.45063-.2519 3.15003-4.5217 2.8173-14.47506 8.8029-15.629754 7.6484-1.171486-1.1714 4.883884-10.91248 7.592564-15.12325.6574-1.02194 2.06714-1.20584 2.97529-.39855zm2.7691-.32026c.0895.31108.4466.45637.7279.2962l.2758-.15707.0028-.00157.0149-.00826c.0138-.00764.0352-.0194.0635-.03449.0565-.03024.1395-.07358.2418-.12388.2066-.10153.4827-.22694.7729-.33049.2978-.10631.5713-.17525.7824-.18957.0982-.00665.175.07011.1683.16832-.0143.21118-.0832.48463-.1895.78247-.1036.29012-.229.56628-.3305.77283-.0503.10232-.0937.18536-.1239.24187-.0151.02821-.0268.04968-.0345.06349l-.0082.01483-.0018.00312-.1569.27553c-.1601.2813-.0149.63835.2962.72789l.3054.08791.0029.00085.0139.0041c.0128.00378.0325.00965.0582.0175.0514.01571.1269.03928.2201.06984.1872.06134.4428.1498.7177.25844.0823.03253.1635.0658.2428.09959.0653.02778.0565.12069-.0127.13624-.8674.1949-1.9602.36416-2.8034.48079-.1442.01996-.2897-.02467-.3986-.12144l-1.865-1.65781c-.1238-.11007-.1852-.27422-.163-.43841.1136-.84023.2875-1.9958.4907-2.91831.0202-.09186.1427-.10337.1789-.01656.0245.05853.0486.11791.0723.17789.1086.27485.1971.53044.2584.71763.0306.09327.0541.16876.0698.22019.0079.02569.0138.04533.0175.05811l.0041.01392.001.00333zm1.5482 6.16476-5.31378-4.72337c-.2297-.20418-.56499-.14776-.71725.08895-.47641.74059-1.05475 1.64988-1.67759 2.6511-.107.17199-.05208.39783.11933.50574.31244.19669.72269.46852 1.03479.72894.34759.29003.74659.69044 1.04632 1.00334.15271.1594.28506.3017.37935.4044.0472.0514.08501.0929.11123.1219l.0304.0337.0082.0091.0032.0037c.276.3088.2494.783-.05946 1.059-.30884.2759-.78294.2493-1.05895-.0595l-.00183-.002-.00667-.0075-.02714-.03c-.02396-.0265-.05922-.0653-.10364-.1137-.08894-.0968-.21396-.2313-.35782-.3814-.29343-.3063-.64443-.6559-.92421-.8893-.23149-.1932-.57124-.4214-.87291-.61128-.16427-.10342-.38045-.04984-.4809.11628-.1747.2889-.3501.581-.52512.8749-.02967.0498-.02442.1123.00514.1622.00654.011.01411.0212.02326.0302.0498.049.14421.1363.31162.276.34759.29.74659.6904 1.04632 1.0033.15271.1594.28506.3017.37935.4044.0472.0514.08501.0929.11123.1219l.0304.0337.00819.0091.00312.0035c.276.3089.24949.7832-.05937 1.0592-.30884.2759-.78293.2493-1.05894-.0595l-.00184-.002-.00667-.0075-.02714-.03c-.02395-.0265-.05922-.0653-.10363-.1137-.08894-.0968-.21396-.2313-.35783-.3814-.29343-.3063-.64443-.6559-.9242-.8893-.11462-.0957-.28932-.0672-.36364.0622-.29241.5093-.57757 1.0158-.8499 1.5119l-1.33209 2.7266c-.20761.425.23622.874.66355.6713l2.85917-1.3563c3.15182-1.6797 6.73585-3.8587 8.98975-5.263.2536-.158.3048-.5281.0486-.7558z" fill="#939ba1" fill-rule="evenodd"/></svg>

<svg width="20" height="20" viewBox="0 0 20 20" fill="none" xmlns="http://www.w3.org/2000/svg">
<path fill-rule="evenodd" clip-rule="evenodd" d="M10.7177 4.3283C10.8062 4.40695 10.9467 4.35594 10.9647 4.23893C11.0668 3.5718 11.1919 2.84229 11.3321 2.20598C11.4496 1.67229 11.5893 1.14803 11.7547 0.779609C11.8264 0.620009 11.9567 0.360819 12.1859 0.187028C12.3199 0.0854382 12.5319 -0.0193658 12.8001 0.00200567C13.0649 0.0231038 13.2564 0.157121 13.3728 0.273597C13.8487 0.749447 14.215 1.5614 14.4431 2.13848C14.5083 2.30327 14.6962 2.38332 14.8612 2.31861C14.9331 2.29037 15.007 2.26258 15.0821 2.23576C15.4357 2.10957 15.8577 1.99012 16.2674 1.96235C16.6553 1.93605 17.2023 1.98175 17.6083 2.38775C18.0143 2.79375 18.06 3.34071 18.0337 3.72868C18.0059 4.13834 17.8865 4.56037 17.7603 4.91392C17.7335 4.98907 17.7057 5.06292 17.6775 5.1349C17.6127 5.29985 17.6928 5.48779 17.8576 5.55292C18.4347 5.78103 19.2466 6.14738 19.7225 6.62323C19.8361 6.73689 19.9669 6.92215 19.9925 7.17877C20.0187 7.44104 19.9227 7.65309 19.823 7.79129C19.6537 8.02591 19.3971 8.15805 19.2434 8.22902C18.8871 8.39357 18.3804 8.53148 17.8652 8.64724C17.3024 8.7737 16.6605 8.88832 16.0508 8.98543C16.019 8.9905 16.0074 9.03027 16.0315 9.05167C17.0201 9.93046 16.9023 11.5023 15.7796 12.2017C11.2579 15.019 1.30454 21.0046 0.149846 19.8501C-1.02164 18.6787 5.03373 8.93762 7.74241 4.72685C8.39981 3.70491 9.80955 3.52101 10.7177 4.3283ZM13.4868 4.00804C13.5763 4.31912 13.9334 4.46441 14.2147 4.30424L14.4905 4.14717L14.4933 4.1456L14.5082 4.13734C14.522 4.1297 14.5434 4.11794 14.5717 4.10285C14.6282 4.07261 14.7112 4.02927 14.8135 3.97897C15.0201 3.87744 15.2962 3.75203 15.5864 3.64848C15.8842 3.54217 16.1577 3.47323 16.3688 3.45891C16.467 3.45226 16.5438 3.52902 16.5371 3.62723C16.5228 3.83841 16.4539 4.11186 16.3476 4.4097C16.244 4.69982 16.1186 4.97598 16.0171 5.18253C15.9668 5.28485 15.9234 5.36789 15.8932 5.4244C15.8781 5.45261 15.8664 5.47408 15.8587 5.48789L15.8505 5.50272L15.8487 5.50584L15.6918 5.78137C15.5317 6.06267 15.6769 6.41972 15.988 6.50926L16.2934 6.59717L16.2963 6.59802L16.3102 6.60212C16.323 6.6059 16.3427 6.61177 16.3684 6.61962C16.4198 6.63533 16.4953 6.6589 16.5885 6.68946C16.7757 6.7508 17.0313 6.83926 17.3062 6.9479C17.3885 6.98043 17.4697 7.0137 17.549 7.04749C17.6143 7.07527 17.6055 7.16818 17.5363 7.18373C16.6689 7.37863 15.5761 7.54789 14.7329 7.66452C14.5887 7.68448 14.4432 7.63985 14.3343 7.54308L12.4693 5.88527C12.3455 5.7752 12.2841 5.61105 12.3063 5.44686C12.4199 4.60663 12.5938 3.45106 12.797 2.52855C12.8172 2.43669 12.9397 2.42518 12.9759 2.51199C13.0004 2.57052 13.0245 2.6299 13.0482 2.68988C13.1568 2.96473 13.2453 3.22032 13.3066 3.40751C13.3372 3.50078 13.3607 3.57627 13.3764 3.6277C13.3843 3.65339 13.3902 3.67303 13.3939 3.68581L13.398 3.69973L13.399 3.70306L13.4868 4.00804ZM15.035 10.1728L9.72122 5.44943C9.49152 5.24525 9.15623 5.30167 9.00397 5.53838C8.52756 6.27897 7.94922 7.18826 7.32638 8.18948C7.21938 8.36147 7.2743 8.58731 7.44571 8.69522C7.75815 8.89191 8.1684 9.16374 8.4805 9.42416C8.82809 9.71419 9.22709 10.1146 9.52682 10.4275C9.67953 10.5869 9.81188 10.7292 9.90617 10.8319C9.95337 10.8833 9.99118 10.9248 10.0174 10.9538L10.0478 10.9875L10.056 10.9966L10.0592 11.0003C10.3352 11.3091 10.3086 11.7833 9.99974 12.0593C9.6909 12.3352 9.2168 12.3086 8.94079 11.9998L8.93896 11.9978L8.93229 11.9903L8.90515 11.9603C8.88119 11.9338 8.84593 11.895 8.80151 11.8466C8.71257 11.7498 8.58755 11.6153 8.44369 11.4652C8.15026 11.1589 7.79926 10.8093 7.51948 10.5759C7.28799 10.3827 6.94824 10.1545 6.64657 9.96462C6.4823 9.8612 6.26612 9.91478 6.16567 10.0809C5.99097 10.3698 5.81557 10.6619 5.64055 10.9558C5.61088 11.0056 5.61613 11.0681 5.64569 11.118C5.65223 11.129 5.6598 11.1392 5.66895 11.1482C5.71875 11.1972 5.81316 11.2845 5.98057 11.4242C6.32816 11.7142 6.72716 12.1146 7.02689 12.4275C7.1796 12.5869 7.31195 12.7292 7.40624 12.8319C7.45344 12.8833 7.49125 12.9248 7.51747 12.9538L7.54787 12.9875L7.55606 12.9966L7.55918 13.0001C7.83518 13.309 7.80867 13.7833 7.49981 14.0593C7.19097 14.3352 6.71688 14.3086 6.44087 13.9998L6.43903 13.9978L6.43236 13.9903L6.40522 13.9603C6.38127 13.9338 6.346 13.895 6.30159 13.8466C6.21265 13.7498 6.08763 13.6153 5.94376 13.4652C5.65033 13.1589 5.29933 12.8093 5.01956 12.5759C4.90494 12.4802 4.73024 12.5087 4.65592 12.6381C4.36351 13.1474 4.07835 13.6539 3.80602 14.15L2.47393 16.8766C2.26632 17.3016 2.71015 17.7506 3.13748 17.5479L5.99665 16.1916C9.14847 14.5119 12.7325 12.3329 14.9864 10.9286C15.24 10.7706 15.2912 10.4005 15.035 10.1728Z" fill="#939BA1"/>
</svg>
